src/images/single-assets/ankrBNB.svg

<svg width="120" height="120" viewBox="0 0 120 120" fill="none" xmlns="http://www.w3.org/2000/svg">
    <g clip-path="url(#clip0_735_109)">
        <path d="M52.1263 2.09055C56.9982 -0.696849 63.0006 -0.696849 67.8725 2.09055L106.673 24.2896C111.544 27.077 114.546 32.2284 114.546 37.8032V82.2014C114.546 87.7761 111.544 92.9275 106.673 95.7149L67.8725 117.914C63.0006 120.701 56.9982 120.701 52.1263 117.914L13.3262 95.7149C8.45433 92.9275 5.45312 87.7762 5.45312 82.2014V37.8032C5.45312 32.2284 8.45432 27.077 13.3262 24.2896L52.1263 2.09055Z" fill="#FFE81C"/>
        <path d="M46.2303 54.3425L60.0014 40.5714L73.7791 54.3484L81.7918 46.3357L60.0014 24.5459L38.2181 46.3292L46.2306 54.3419L46.2303 54.3425ZM24.5469 60.0004L32.5599 51.9863L40.5723 59.9987L32.5593 68.0117L24.5469 60.0004ZM46.2303 65.6593L60.0014 79.4295L73.7788 65.6527L81.7958 73.6612L81.7918 73.6655L60.0014 95.455L38.2181 73.6717L38.2068 73.6604L46.2312 65.6584L46.2303 65.6593ZM79.4305 60.0038L87.4435 51.9908L95.456 60.0033L87.4432 68.0163L79.4305 60.0038Z" fill="black"/>
        <path d="M68.1264 59.9959H68.1299L59.9997 51.8652L53.9903 57.8729L53.2999 58.5636L51.8761 59.9877L51.8647 59.9988L51.8761 60.0104L59.9997 68.1352L68.1304 60.0045L68.1344 59.9999L68.127 59.9959" fill="black"/>
    </g>
    <defs>
        <clipPath id="clip0_735_109">
            <rect width="120" height="120" fill="white"/>
        </clipPath>
    </defs>
</svg>

<svg xmlns="http://www.w3.org/2000/svg" width="120" height="120" fill="none"><g clip-path="url(#a)"><path fill="#FFE81C" d="M52.126 2.09a15.87 15.87 0 0 1 15.747 0l38.8 22.2c4.871 2.787 7.873 7.938 7.873 13.513v44.398c0 5.575-3.002 10.727-7.873 13.514l-38.8 22.199a15.87 15.87 0 0 1-15.747 0l-38.8-22.2c-4.872-2.787-7.873-7.938-7.873-13.513V37.803c0-5.575 3.001-10.726 7.873-13.513z"/><path fill="#000" d="M46.23 54.343 60.001 40.57 73.78 54.348l8.013-8.012-21.79-21.79-21.784 21.783 8.013 8.013M24.547 60l8.013-8.014L40.572 60l-8.013 8.013zm21.683 5.66 13.771 13.77L73.78 65.653l8.017 8.008-.004.004-21.79 21.79-21.784-21.783-.011-.012 8.024-8.002zm33.2-5.656 8.013-8.013 8.013 8.012-8.013 8.013z"/><path fill="#000" d="M68.126 59.996h.004L60 51.866l-6.01 6.007-.69.69-1.424 1.425-.011.01.011.012L60 68.135l8.13-8.13.004-.005z"/></g><defs><clipPath id="a"><path fill="#fff" d="M0 0h120v120H0z"/></clipPath></defs></svg>
